Origami/64x64/apps/solaar.svg

<svg width="64" height="64" version="1" xmlns="http://www.w3.org/2000/svg">
 <rect transform="matrix(0,-1,-1,0,0,0)" x="-61" y="-60" width="56" height="56" rx="2.8" ry="2.8" style="opacity:.2"/>
 <rect transform="matrix(0,-1,-1,0,0,0)" x="-60" y="-60" width="56" height="56" rx="2.8" ry="2.8" style="fill:#029499"/>
 <path d="M 6.8007812 4 C 5.2495812 4 4 5.2495812 4 6.8007812 L 4 7.8007812 C 4 6.2495813 5.2495812 5 6.8007812 5 L 57.199219 5 C 58.750419 5 60 6.2495812 60 7.8007812 L 60 6.8007812 C 60 5.2495813 58.750419 4 57.199219 4 L 6.8007812 4 z" style="fill:#ffffff;opacity:.2"/>
 <path d="m24.597656 14.179376-5.195312 3 4.714844 8.164062a11 11 0 0 0 -2.689454 4.65625h-9.427734v6h9.419922a11 11 0 0 0 2.691406 4.666016l-4.708984 8.154296 5.195312 3 4.716797-8.167968a11 11 0 0 0 2.685547 0.347656 11 11 0 0 0 2.689453 -0.34375l4.712891 8.164062 5.195312-3-4.714844-8.164062a11 11 0 0 0 2.689454 -4.65625h9.427734v-6h-9.419922a11 11 0 0 0 -2.691406 -4.666016l4.708984-8.154296-5.195312-3-4.716797 8.167968a11 11 0 0 0 -2.685547 -0.347656 11 11 0 0 0 -2.689453 0.34375l-4.712891-8.164062zm7.402344 11.820312a7 7 0 0 1 7 7 7 7 0 0 1 -7 7 7 7 0 0 1 -7 -7 7 7 0 0 1 7 -7z" style="opacity:.2"/>
 <path d="m24.597656 13.179688l-5.195312 3 4.714844 8.164062a11 11 0 0 0 -2.689454 4.65625h-9.427734v6h9.419922a11 11 0 0 0 2.691406 4.666016l-4.708984 8.154296 5.195312 3 4.716797-8.167968a11 11 0 0 0 2.685547 0.347656 11 11 0 0 0 2.689453 -0.34375l4.712891 8.164062 5.195312-3-4.714844-8.164062a11 11 0 0 0 2.689454 -4.65625h9.427734v-6h-9.419922a11 11 0 0 0 -2.691406 -4.666016l4.708984-8.154296-5.195312-3-4.716797 8.167968a11 11 0 0 0 -2.685547 -0.347656 11 11 0 0 0 -2.689453 0.34375l-4.712891-8.164062zm7.402344 11.820312a7 7 0 0 1 7 7 7 7 0 0 1 -7 7 7 7 0 0 1 -7 -7 7 7 0 0 1 7 -7z" style="fill:#ffffff"/>
</svg>

<svg xmlns="http://www.w3.org/2000/svg" width="64" height="64" version="1">
 <rect style="opacity:0.2" width="56" height="56" x="-61" y="-60" rx="2.8" ry="2.8" transform="matrix(0,-1,-1,0,0,0)"/>
 <rect style="fill:#029499" width="56" height="56" x="-60" y="-60" rx="2.8" ry="2.8" transform="matrix(0,-1,-1,0,0,0)"/>
 <path style="opacity:0.2;fill:#ffffff" d="M 6.8007812 4 C 5.2495812 4 4 5.2495812 4 6.8007812 L 4 7.8007812 C 4 6.2495813 5.2495812 5 6.8007812 5 L 57.199219 5 C 58.750419 5 60 6.2495812 60 7.8007812 L 60 6.8007812 C 60 5.2495813 58.750419 4 57.199219 4 L 6.8007812 4 z"/>
 <path style="opacity:0.2" d="m 24.597656,14.179376 -5.195312,3 4.714844,8.164062 a 11,11 0 0 0 -2.689454,4.65625 l -9.427734,0 0,6 9.419922,0 a 11,11 0 0 0 2.691406,4.666016 L 19.402344,48.82 l 5.195312,3 4.716797,-8.167968 A 11,11 0 0 0 32,43.999688 a 11,11 0 0 0 2.689453,-0.34375 l 4.712891,8.164062 5.195312,-3 -4.714844,-8.164062 a 11,11 0 0 0 2.689454,-4.65625 l 9.427734,0 0,-6 -9.419922,0 a 11,11 0 0 0 -2.691406,-4.666016 l 4.708984,-8.154296 -5.195312,-3 -4.716797,8.167968 A 11,11 0 0 0 32,21.999688 11,11 0 0 0 29.310547,22.343438 L 24.597656,14.179376 Z M 32,25.999688 a 7,7 0 0 1 7,7 7,7 0 0 1 -7,7 7,7 0 0 1 -7,-7 7,7 0 0 1 7,-7 z"/>
 <path style="fill:#ffffff" d="M 24.597656 13.179688 L 19.402344 16.179688 L 24.117188 24.34375 A 11 11 0 0 0 21.427734 29 L 12 29 L 12 35 L 21.419922 35 A 11 11 0 0 0 24.111328 39.666016 L 19.402344 47.820312 L 24.597656 50.820312 L 29.314453 42.652344 A 11 11 0 0 0 32 43 A 11 11 0 0 0 34.689453 42.65625 L 39.402344 50.820312 L 44.597656 47.820312 L 39.882812 39.65625 A 11 11 0 0 0 42.572266 35 L 52 35 L 52 29 L 42.580078 29 A 11 11 0 0 0 39.888672 24.333984 L 44.597656 16.179688 L 39.402344 13.179688 L 34.685547 21.347656 A 11 11 0 0 0 32 21 A 11 11 0 0 0 29.310547 21.34375 L 24.597656 13.179688 z M 32 25 A 7 7 0 0 1 39 32 A 7 7 0 0 1 32 39 A 7 7 0 0 1 25 32 A 7 7 0 0 1 32 25 z"/>
</svg>
